Sources/FrostedUI/Resources/Icons.xcassets/cube32.imageset/cube-32.svg

<svg width="32" height="32" viewBox="0 0 32 32" fill="none" xmlns="http://www.w3.org/2000/svg" data-fui-icon="true">
  <path
    d="M16.0085 1.5C16.8097 1.5 17.5947 1.72811 18.2712 2.15723L27.2585 7.8584C28.3427 8.54617 28.9997 9.7405 28.9998 11.0244V20.9756C28.9997 22.2595 28.3427 23.4538 27.2585 24.1416L18.2712 29.8428C17.5947 30.2719 16.8097 30.5 16.0085 30.5C15.2075 30.5 14.4233 30.2718 13.7468 29.8428L4.75854 24.1416C3.67445 23.4538 3.01743 22.2594 3.01733 20.9756V11.0244C3.01743 9.74055 3.67445 8.54618 4.75854 7.8584L13.7468 2.15723C14.4233 1.7282 15.2075 1.50002 16.0085 1.5ZM16.0085 3C15.492 3.00002 14.9858 3.14714 14.5496 3.42383L5.56226 9.125C4.91177 9.53764 4.51743 10.2541 4.51733 11.0244V20.9756C4.51743 21.7459 4.91177 22.4624 5.56226 22.875L14.5496 28.5762C14.9858 28.8529 15.492 29 16.0085 29C16.5251 29 17.0313 28.8529 17.4675 28.5762L26.4548 22.875C27.1054 22.4624 27.4997 21.7459 27.4998 20.9756V11.0244C27.4997 10.2541 27.1054 9.53763 26.4548 9.125L17.4675 3.42383C17.0313 3.14712 16.5251 3 16.0085 3ZM8.21948 11.4678C8.4167 11.1039 8.87201 10.9692 9.23608 11.166L16.0037 14.8271L22.7722 11.166C23.1363 10.9691 23.5916 11.1039 23.7888 11.4678C23.9859 11.832 23.8502 12.2872 23.4861 12.4844L16.7488 16.1309V24.1123C16.7487 24.5265 16.413 24.8623 15.9988 24.8623C15.5848 24.8621 15.2488 24.5263 15.2488 24.1123V16.125L8.52222 12.4844C8.15825 12.2871 8.02249 11.8319 8.21948 11.4678Z"
    fill="currentColor"
  />
</svg>

<svg xmlns="http://www.w3.org/2000/svg" width="32" height="32" fill="none" data-fui-icon="true" viewBox="0 0 32 32"><path fill="currentColor" d="M16.009 1.5c.8 0 1.586.228 2.262.657l8.988 5.701a3.75 3.75 0 0 1 1.74 3.166v9.952a3.75 3.75 0 0 1-1.74 3.166l-8.988 5.7a4.22 4.22 0 0 1-4.524 0l-8.988-5.7a3.75 3.75 0 0 1-1.742-3.166v-9.952A3.75 3.75 0 0 1 4.76 7.858l8.988-5.7a4.2 4.2 0 0 1 2.262-.658m0 1.5c-.517 0-1.023.147-1.46.424L5.563 9.125a2.25 2.25 0 0 0-1.045 1.9v9.95c0 .77.395 1.487 1.045 1.9l8.988 5.701a2.72 2.72 0 0 0 2.918 0l8.987-5.701a2.25 2.25 0 0 0 1.045-1.9v-9.95a2.25 2.25 0 0 0-1.045-1.9l-8.987-5.701A2.72 2.72 0 0 0 16.008 3m-7.79 8.468a.75.75 0 0 1 1.017-.302l6.768 3.661 6.768-3.661a.75.75 0 0 1 .714 1.318l-6.737 3.647v7.981a.75.75 0 0 1-1.5 0v-7.987l-6.727-3.64a.75.75 0 0 1-.303-1.017"/></svg>
